src/img/search.svg

<svg width="100" height="100" viewBox="0 0 100 100" fill="none" xmlns="http://www.w3.org/2000/svg">
<circle cx="50" cy="50" r="47.5" fill="#3E9CDC" stroke="#286690" stroke-width="5"/>
<path d="M55.9286 47.9286C55.9286 52.8906 51.8906 56.9286 46.9286 56.9286C41.9665 56.9286 37.9286 52.8906 37.9286 47.9286C37.9286 42.9665 41.9665 38.9286 46.9286 38.9286C51.8906 38.9286 55.9286 42.9665 55.9286 47.9286ZM66.2143 64.6429C66.2143 63.9598 65.933 63.2969 65.471 62.8348L58.5803 55.9442C60.2076 53.5937 61.0714 50.7812 61.0714 47.9286C61.0714 40.1138 54.7433 33.7857 46.9286 33.7857C39.1138 33.7857 32.7857 40.1138 32.7857 47.9286C32.7857 55.7433 39.1138 62.0714 46.9286 62.0714C49.7812 62.0714 52.5937 61.2076 54.9442 59.5803L61.8348 66.4509C62.2969 66.933 62.9598 67.2143 63.6429 67.2143C65.0491 67.2143 66.2143 66.0491 66.2143 64.6429Z" fill="white"/>
</svg>

<svg width="100" height="100" fill="none" xmlns="http://www.w3.org/2000/svg"><circle cx="50" cy="50" r="47.5" fill="#3E9CDC" stroke="#286690" stroke-width="5"/><path d="M55.929 47.929c0 4.962-4.038 9-9 9s-9-4.038-9-9 4.038-9 9-9 9 4.038 9 9zm10.285 16.714c0-.683-.281-1.346-.743-1.808l-6.89-6.89a14.11 14.11 0 002.49-8.016c0-7.815-6.328-14.143-14.142-14.143-7.815 0-14.143 6.328-14.143 14.143 0 7.814 6.328 14.142 14.143 14.142a14.11 14.11 0 008.015-2.49l6.89 6.87a2.522 2.522 0 001.809.763 2.59 2.59 0 002.571-2.571z" fill="#fff"/></svg>
